X:2959
T:Chicago Reel, The
S:irtrad-l, L.LaVerne,11/97
M:4/4
L:1/8
Q:180
S:David Kidd
R:Reel
Z:Lorna LaVerne
K:G
D2 |
|:GABA GEDB, | DEDB, DEGA | BGdG eGdG | Beed B2BA |
GABA GEDB, | DEDB, DEGA | Beed B2BA | GEED E2EF:|
GAB^c d2Bc | ~d3A FADD | GAB^c dcBA | Beed e2EF |
GAB^c d2dB | e2e^c d2ed | ^c2cA BdBA | GEED E2EF |
GAB^c d2Bc | d2dA FDDD | GAB^c dcBA | Beed e2EF |
GAB^c d2dB | e2e^c d2ed | ^c2cA BdBA | GEED E2 |]


